packages/tokens/icons/chartPie/size24Px.svg

<svg viewBox="0 0 24 24" fill="none" xmlns="http://www.w3.org/2000/svg" width="1em" height="1em"><path d="M14.9363 2.55782C18.3294 2.98007 21.0199 5.67061 21.4422 9.06373C21.4681 9.27186 21.2952 9.5 21 9.5H15C14.7239 9.5 14.5 9.27614 14.5 9L14.5 3C14.5 2.70485 14.7281 2.53192 14.9363 2.55782Z" stroke="currentColor" stroke-linejoin="round"/><path d="M21.4532 12.9493C20.9772 17.75 16.9262 21.5 12 21.5C6.7533 21.5 2.5 17.2467 2.5 12C2.5 7.07377 6.24997 3.02277 11.0507 2.5468C11.273 2.52476 11.5 2.70906 11.5 3L11.5 11C11.5 11.8284 12.1716 12.5 13 12.5L21 12.5C21.2909 12.5 21.4752 12.727 21.4532 12.9493Z" stroke="currentColor" stroke-linejoin="round"/></svg>

<svg xmlns="http://www.w3.org/2000/svg" fill="none" viewBox="0 0 24 24" width="1em" height="1em"><path stroke="currentColor" stroke-linejoin="round" d="M14.936 2.558a7.504 7.504 0 0 1 6.506 6.506c.026.208-.147.436-.442.436h-6a.5.5 0 0 1-.5-.5V3c0-.295.228-.468.436-.442Z"/><path stroke="currentColor" stroke-linejoin="round" d="M21.453 12.95A9.5 9.5 0 0 1 2.5 12c0-4.926 3.75-8.977 8.55-9.453.223-.022.45.162.45.453v8a1.5 1.5 0 0 0 1.5 1.5h8c.29 0 .475.227.453.45Z"/></svg>
